packages/react/src/components/base/Icon/assets/icon-microscope.svg

<svg width="24" height="24" viewBox="0 0 24 24" xmlns="http://www.w3.org/2000/svg" fill="currentColor"> <path d="M21 19.8755H19.875C20.7061 18.6576 21.2115 17.2471 21.343 15.7785C21.4745 14.3098 21.2277 12.832 20.6262 11.4858C20.0246 10.1396 19.0883 8.96987 17.9065 8.08811C16.7247 7.20634 15.3368 6.64192 13.875 6.44861V3.75049C13.875 3.25321 13.6775 2.77629 13.3258 2.42466C12.9742 2.07303 12.4973 1.87549 12 1.87549H7.5C7.00272 1.87549 6.52581 2.07303 6.17417 2.42466C5.82254 2.77629 5.625 3.25321 5.625 3.75049V12.7505C5.625 13.2478 5.82254 13.7247 6.17417 14.0763C6.52581 14.4279 7.00272 14.6255 7.5 14.6255H12C12.4973 14.6255 12.9742 14.4279 13.3258 14.0763C13.6775 13.7247 13.875 13.2478 13.875 12.7505V8.72674C15.3462 8.99236 16.6774 9.76581 17.6368 10.9123C18.5962 12.0588 19.1229 13.5056 19.125 15.0005C19.1289 15.9298 18.9278 16.8485 18.536 17.6911C18.1442 18.5338 17.5713 19.2796 16.8581 19.8755H3C2.70163 19.8755 2.41548 19.994 2.2045 20.205C1.99353 20.416 1.875 20.7021 1.875 21.0005C1.875 21.2989 1.99353 21.585 2.2045 21.796C2.41548 22.007 2.70163 22.1255 3 22.1255H21C21.2984 22.1255 21.5845 22.007 21.7955 21.796C22.0065 21.585 22.125 21.2989 22.125 21.0005C22.125 20.7021 22.0065 20.416 21.7955 20.205C21.5845 19.994 21.2984 19.8755 21 19.8755ZM11.625 12.3755H7.875V4.12549H11.625V12.3755ZM6.75 18.3755C6.45163 18.3755 6.16548 18.257 5.9545 18.046C5.74353 17.835 5.625 17.5489 5.625 17.2505C5.625 16.9521 5.74353 16.666 5.9545 16.455C6.16548 16.244 6.45163 16.1255 6.75 16.1255H12.75C13.0484 16.1255 13.3345 16.244 13.5455 16.455C13.7565 16.666 13.875 16.9521 13.875 17.2505C13.875 17.5489 13.7565 17.835 13.5455 18.046C13.3345 18.257 13.0484 18.3755 12.75 18.3755H6.75Z"/> </svg>

<svg viewBox="0 0 24 24" xmlns="http://www.w3.org/2000/svg" aria-hidden="true" fill="currentColor"><path d="M21 19.876h-1.125a8.635 8.635 0 0 0-6-13.427V3.75A1.875 1.875 0 0 0 12 1.875H7.5A1.875 1.875 0 0 0 5.625 3.75v9A1.875 1.875 0 0 0 7.5 14.626H12a1.875 1.875 0 0 0 1.875-1.875V8.727A6.384 6.384 0 0 1 19.125 15a6.32 6.32 0 0 1-2.267 4.874H3a1.125 1.125 0 1 0 0 2.25h18a1.125 1.125 0 1 0 0-2.25m-9.375-7.5h-3.75v-8.25h3.75zm-4.875 6a1.125 1.125 0 1 1 0-2.25h6a1.125 1.125 0 1 1 0 2.25z"/></svg>
